X: 11854
T: Emerald Bay
R: jig
M: 6/8
K: Dmixolydian
Add Add|edd dcB|Add Add|cA=F BGD|
Add Add|e2d def|gea fge|1 fdc eBc:|2 fdc eAB||
cAd BcA|BAg fed|cgf edc|Bde dBG||

